X:230
T:Lieutenant Maguire's Jig
C:Joe Buchanan's Scottish Tome - Page 294.1
I:294 1
R:Jig
Z:Carl Allison
L:1/8
M:6/8
K:Bmin
f | "Bm"BBB (d2 e) | "Bm"fBB f>BB | "A"A>AA (c2 d) | "A"e>AA e>AA |
"Bm"B>BB (d2 e) | "Bm"f>BB f>BB | "Bm"f>ff "A"e>dc | "Bm"dBB B2 :|
c | "D"(d2 e) f>dd | "D"a>dd f>ed | "D"(d2 e) f>dd | "A"eAA A>Bc |
"D"(d2 e) f>dd | "D"add f>ed | "A"e2 e f2 e | "Bm"dBB B2 :|
f | "Bm"B>BB (d2 e) | "Bm"(f2 e) f>ga | "A"A>AA (c2 d) | "A"e>AA e>AA |
"Bm"BBB (d2 e) | "Bm"(f2 e) f>ga | "A"e>ee f2 e | "A"d>BB B2 :|
f | "Bm"B>BB B>fB | "Bm"B>aB f>BB | "A"A>AA A>eA | A>fA e>fA |
"Bm"B>BB B>fB | "Bm"B>aB f>BB | "Bm"f>ff "A"e>dc | "Bm"d>BB B2 :|

